static/img/in-field/switches-on-focus.svg

<svg width="78" height="56" viewBox="0 0 78 56" fill="none" xmlns="http://www.w3.org/2000/svg">
<rect width="64" height="32" rx="16" transform="matrix(1 0 0 -1 7 44)" fill="#217CBB"/>
<path d="M68 28C68 35.1797 62.1797 41 55 41C47.8203 41 42 35.1797 42 28C42 20.8203 47.8203 15 55 15C62.1797 15 68 20.8203 68 28Z" fill="white"/>
<path fill-rule="evenodd" clip-rule="evenodd" d="M23 5H55C67.7025 5 78 15.2975 78 28C78 40.7025 67.7025 51 55 51H23C10.2975 51 0 40.7025 0 28C0 15.2975 10.2975 5 23 5ZM23 9C12.5066 9 4 17.5066 4 28C4 38.4934 12.5066 47 23 47H55C65.4934 47 74 38.4934 74 28C74 17.5066 65.4934 9 55 9H23Z" fill="#019AEB"/>
</svg>

<svg width="78" height="56" fill="none" xmlns="http://www.w3.org/2000/svg"><rect width="64" height="32" rx="16" transform="matrix(1 0 0 -1 7 44)" fill="#217CBB"/><path d="M68 28c0 7.18-5.82 13-13 13s-13-5.82-13-13 5.82-13 13-13 13 5.82 13 13z" fill="#fff"/><path fill-rule="evenodd" clip-rule="evenodd" d="M23 5h32c12.703 0 23 10.297 23 23S67.703 51 55 51H23C10.297 51 0 40.703 0 28S10.297 5 23 5zm0 4C12.507 9 4 17.507 4 28s8.507 19 19 19h32c10.493 0 19-8.507 19-19S65.493 9 55 9H23z" fill="#019AEB"/></svg>
